**kern
*clefG2
*k[b-e-a-d-g-]
*M3/4
=1-
8g-
4f
8g-
8g#
16f
16g#
=2
(16f
2f)
16e-
16d#
16e-
=3
4e#
4f
8e#
16e#
16e#
=4
2r
8d- 8B-
8e-
=5
(4e-
16f)
(16e-
8dn)
16dn
16c
16c-
16c-
=6
8c
4B-
16A-
4r
16G-
=7
2F
4F
=8
16G-
2F
16r
8F
=9
4G-
16F
4G-
16G#
(16A-
16G#)
=10
2G-
16r
8.F#
=11
*-